icons/Device/barcode-line.svg

<svg xmlns="http://www.w3.org/2000/svg" viewBox="0 0 24 24">
    <g>
        <path fill="none" d="M0 0h24v24H0z"/>
        <path d="M2 4h2v16H2V4zm4 0h1v16H6V4zm2 0h2v16H8V4zm3 0h2v16h-2V4zm3 0h2v16h-2V4zm3 0h1v16h-1V4zm2 0h3v16h-3V4z"/>
    </g>
</svg>

<svg viewBox="0 0 24 24" xmlns="http://www.w3.org/2000/svg"><path d="M2 4H4V20H2V4ZM6 4H7V20H6V4ZM8 4H10V20H8V4ZM11 4H13V20H11V4ZM14 4H16V20H14V4ZM17 4H18V20H17V4ZM19 4H22V20H19V4Z"/></svg>
